images/ico-bicro-marche-labels.svg

<svg xmlns="http://www.w3.org/2000/svg" width="24" height="25" fill="none" viewBox="0 0 24 25"><circle cx="17.7" cy="7.5" r="6" fill="#fdd"/><g clip-path="url(#clip0_218:150)"><path fill="#000638" d="M10.56 6.56L17.1336 8.0208C17.4992 8.1024 17.76 8.4264 17.76 8.8016V16.7912C17.76 18.396 16.9576 19.8952 15.6224 20.7848L10.56 24.16L5.49759 20.7848C4.16159 19.8944 3.35999 18.396 3.35999 16.792V8.8016C3.35999 8.4264 3.62079 8.1024 3.98639 8.0208L10.56 6.56ZM10.56 8.1992L4.95999 9.4432V16.7912C4.95999 17.8608 5.49439 18.86 6.38479 19.4536L10.56 22.2376L14.7352 19.4536C15.6256 18.86 16.16 17.8616 16.16 16.792V9.4432L10.56 8.2V8.1992ZM14.1216 12.3376L15.2536 13.4688L10.1624 18.56L6.76799 15.1656L7.89919 14.0344L10.1616 16.2968L14.1216 12.3368V12.3376Z"/></g><defs><clipPath id="clip0_218:150"><path fill="#fff" d="M0 0H19.2V19.2H0z" transform="translate(.96 5.76)"/></clipPath></defs></svg>

<svg xmlns="http://www.w3.org/2000/svg" width="24" height="25" fill="none" viewBox="0 0 24 25"><circle cx="17.7" cy="7.5" r="6" fill="#FDD"/><g clip-path="url(#a)"><path fill="#000638" d="m10.56 6.56 6.574 1.46a.8.8 0 0 1 .626.782v7.99a4.8 4.8 0 0 1-2.138 3.993L10.56 24.16l-5.062-3.375a4.8 4.8 0 0 1-2.138-3.993v-7.99a.8.8 0 0 1 .626-.781zm0 1.64-5.6 1.243v7.348a3.2 3.2 0 0 0 1.425 2.663l4.175 2.784 4.175-2.784a3.2 3.2 0 0 0 1.425-2.662V9.443zm3.562 4.138 1.132 1.13-5.092 5.092-3.394-3.394 1.131-1.132 2.263 2.263 3.96-3.96"/></g><defs><clipPath id="a"><path fill="#fff" d="M.96 5.76h19.2v19.2H.96z"/></clipPath></defs></svg>
